src/img/buildings.svg

<svg width="40" height="92" viewBox="0 0 40 92" fill="none" xmlns="http://www.w3.org/2000/svg">
<path d="M36.7767 13.3215V32.9997C36.7767 34.325 35.6279 35.3997 34.2113 35.3997H5.99167C4.57508 35.3997 3.42625 34.325 3.42625 32.9997C3.42625 14.3965 3.42457 17.8814 3.43187 13.3215H36.7767Z" fill="#D1E7FF"/>
<path d="M36.7767 13.3215V17.8664C36.7767 18.8499 35.934 19.6647 34.8827 19.6687C34.871 19.6687 5.34078 19.6687 5.31946 19.6687C4.26844 19.6644 3.42626 18.8496 3.42626 17.8664C3.42626 16.5546 3.4253 17.4602 3.43187 13.3215H36.7767Z" fill="#B9DCFF"/>
<path d="M26.5952 24.6749V35.3998H13.6077V24.6749C13.6077 23.3496 14.7566 22.2749 16.1732 22.2749H24.0298C25.4464 22.2749 26.5952 23.3496 26.5952 24.6749Z" fill="#E8F3FF"/>
<path d="M38.7007 13.3215C38.7007 15.7228 36.6193 17.6715 34.0509 17.6715C31.4831 17.6715 29.4011 15.7237 29.4011 13.3215C29.4011 15.7237 27.3191 17.6715 24.7513 17.6715C22.1835 17.6715 20.1015 15.7237 20.1015 13.3215C20.1015 15.7237 18.0195 17.6715 15.4516 17.6715C12.8838 17.6715 10.8018 15.7237 10.8018 13.3215C10.7978 15.708 8.69817 17.6715 6.152 17.6715C3.60895 17.6715 1.50618 15.7105 1.50218 13.3215C1.50218 9.54093 1.49111 9.77358 1.53024 9.60003C1.56872 9.4297 1.30199 10.0328 5.33587 1.32309C5.5395 0.884345 6.00208 0.600098 6.51276 0.600098H33.6902C34.2008 0.600098 34.6634 0.884345 34.867 1.32309C38.9039 10.0392 38.6341 9.42955 38.6727 9.60003C38.7117 9.7732 38.7007 9.5368 38.7007 13.3215Z" fill="#B9DCFF"/>
<path d="M38.7007 13.3215C38.7007 15.7227 36.6193 17.6714 34.0509 17.6714C31.4831 17.6714 29.4011 15.7237 29.4011 13.3215C29.4011 15.7237 27.3191 17.6714 24.7513 17.6714C22.1834 17.6714 20.1014 15.7237 20.1014 13.3215C20.1014 15.7237 18.0194 17.6714 15.4516 17.6714C12.8838 17.6714 10.8018 15.7237 10.8018 13.3215C10.7978 15.7079 8.69814 17.6714 6.15196 17.6714C3.60891 17.6714 1.50615 15.7104 1.50214 13.3215C1.49581 9.5203 1.49677 9.74837 1.5302 9.6001H38.6727C38.7117 9.77327 38.7007 9.53687 38.7007 13.3215Z" fill="#B9DCFF"/>
<path d="M33.3437 3.8062C25.2003 2.7577 16.9818 4.10253 10.3345 8.78839C9.58623 9.31586 8.67422 9.60011 7.73737 9.60011H1.53033C1.56882 9.42979 1.30209 10.0329 5.33597 1.3231C5.5396 0.884348 6.00218 0.600098 6.51286 0.600098H33.6903C34.2014 0.600098 34.6638 0.884048 34.867 1.3228L35.0457 1.70845C35.5464 2.78943 34.5913 3.96685 33.3437 3.8062Z" fill="white"/>
<path d="M37.418 20.325V33C37.418 34.6542 35.9795 36 34.2113 36H5.99165C4.22343 36 2.78487 34.6542 2.78487 33V20.325C2.78487 19.9937 3.07204 19.725 3.42623 19.725C3.78042 19.725 4.06758 19.9937 4.06758 20.325V33C4.06758 33.9925 4.93069 34.8 5.99165 34.8H12.9664V24.675C12.9664 23.0208 14.4049 21.675 16.1732 21.675H24.0297C25.798 21.675 27.2365 23.0208 27.2365 24.675V32.4C27.2365 32.7313 26.9494 33 26.5952 33C26.241 33 25.9538 32.7313 25.9538 32.4V24.675C25.9538 23.6825 25.0906 22.875 24.0297 22.875H16.1732C15.1123 22.875 14.2491 23.6825 14.2491 24.675V34.8H19.4601V25.35C19.4601 25.0187 19.7473 24.75 20.1014 24.75C20.4556 24.75 20.7428 25.0187 20.7428 25.35V34.8H34.2113C35.2721 34.8 36.1353 33.9925 36.1353 33V20.325C36.1353 19.9937 36.4225 19.725 36.7767 19.725C37.1309 19.725 37.418 19.9936 37.418 20.325ZM5.02962 9.6C5.02962 9.93135 5.31678 10.2 5.67097 10.2C40.5661 10.2 38.836 10.2584 39.0909 10.0754C39.2242 9.9795 39.3113 9.84112 39.3352 9.68303C39.3709 9.4419 39.6011 10.0349 35.1204 0.361425C35.0186 0.141975 34.7875 0 34.5318 0H5.67089C5.41531 0 5.18402 0.14205 5.08245 0.361425L0.913642 9.36143C0.839966 9.52058 0.86073 9.26798 0.86073 13.3224C0.86538 16.0513 3.23895 18.2714 6.15191 18.2714C8.15446 18.2714 9.90207 17.2222 10.8004 15.6797C12.8067 19.129 18.0914 19.1328 20.1014 15.682C22.1098 19.13 27.3921 19.1308 29.401 15.682C30.2987 17.2232 32.0464 18.2714 34.0508 18.2714C36.9684 18.2714 39.342 16.0509 39.342 13.3214C39.342 12.9901 39.0548 12.7214 38.7006 12.7214C38.3465 12.7214 38.0593 12.9901 38.0593 13.3214C38.0593 15.3892 36.2611 17.0714 34.0508 17.0714C31.8406 17.0714 30.0424 15.3892 30.0424 13.3214C30.0424 12.9901 29.7552 12.7214 29.401 12.7214C29.0468 12.7214 28.7597 12.9901 28.7597 13.3214C28.7597 15.3892 26.9615 17.0714 24.7512 17.0714C22.5409 17.0714 20.7427 15.3892 20.7427 13.3214C20.7427 12.9901 20.4556 12.7214 20.1014 12.7214C19.7472 12.7214 19.46 12.9901 19.46 13.3214C19.46 15.3892 17.6618 17.0714 15.4515 17.0714C13.2904 17.0714 11.4431 15.4466 11.4431 13.2914C11.4431 12.9601 11.1559 12.6914 10.8017 12.6914C10.4475 12.6914 10.1604 12.9601 10.1604 13.2914C10.1604 15.4284 8.32457 17.0714 6.15191 17.0714C3.94516 17.0714 2.14689 15.3887 2.14344 13.3214V9.72435L6.09202 1.2H34.1109L37.7238 9H5.67097C5.3167 9 5.02962 9.26858 5.02962 9.6Z" fill="#007FFC"/>
<path d="M36.7767 69.3215V88.9997C36.7767 90.325 35.6279 91.3997 34.2113 91.3997H5.99167C4.57508 91.3997 3.42625 90.325 3.42625 88.9997C3.42625 70.3965 3.42457 73.8814 3.43187 69.3215H36.7767Z" fill="#E1F4F5"/>
<path d="M36.7767 69.3215V73.8664C36.7767 74.8499 35.934 75.6647 34.8827 75.6687C34.871 75.6687 5.34078 75.6687 5.31946 75.6687C4.26844 75.6644 3.42626 74.8496 3.42626 73.8664C3.42626 72.5546 3.4253 73.4602 3.43187 69.3215H36.7767Z" fill="#CAEFF2"/>
<path d="M26.5952 80.6749V91.3998H13.6077V80.6749C13.6077 79.3496 14.7566 78.2749 16.1732 78.2749H24.0298C25.4464 78.2749 26.5952 79.3496 26.5952 80.6749Z" fill="#F4FEFF"/>
<path d="M38.7007 69.3215C38.7007 71.7228 36.6193 73.6715 34.0509 73.6715C31.4831 73.6715 29.4011 71.7237 29.4011 69.3215C29.4011 71.7237 27.3191 73.6715 24.7513 73.6715C22.1835 73.6715 20.1015 71.7237 20.1015 69.3215C20.1015 71.7237 18.0195 73.6715 15.4516 73.6715C12.8838 73.6715 10.8018 71.7237 10.8018 69.3215C10.7978 71.708 8.69817 73.6715 6.152 73.6715C3.60895 73.6715 1.50618 71.7105 1.50218 69.3215C1.50218 65.5409 1.49111 65.7736 1.53024 65.6C1.56872 65.4297 1.30199 66.0328 5.33587 57.3231C5.5395 56.8843 6.00208 56.6001 6.51276 56.6001H33.6902C34.2008 56.6001 34.6634 56.8843 34.867 57.3231C38.9039 66.0392 38.6341 65.4296 38.6727 65.6C38.7117 65.7732 38.7007 65.5368 38.7007 69.3215Z" fill="#CAEFF2"/>
<path d="M38.7007 69.3215C38.7007 71.7227 36.6193 73.6714 34.0509 73.6714C31.4831 73.6714 29.4011 71.7237 29.4011 69.3215C29.4011 71.7237 27.3191 73.6714 24.7513 73.6714C22.1834 73.6714 20.1014 71.7237 20.1014 69.3215C20.1014 71.7237 18.0194 73.6714 15.4516 73.6714C12.8838 73.6714 10.8018 71.7237 10.8018 69.3215C10.7978 71.7079 8.69814 73.6714 6.15196 73.6714C3.60891 73.6714 1.50615 71.7104 1.50214 69.3215C1.49581 65.5203 1.49677 65.7484 1.5302 65.6001H38.6727C38.7117 65.7733 38.7007 65.5369 38.7007 69.3215Z" fill="#CAEFF2"/>
<path d="M33.3437 59.8062C25.2003 58.7577 16.9818 60.1025 10.3345 64.7884C9.58623 65.3159 8.67422 65.6001 7.73737 65.6001H1.53033C1.56882 65.4298 1.30209 66.0329 5.33597 57.3231C5.5396 56.8843 6.00218 56.6001 6.51286 56.6001H33.6903C34.2014 56.6001 34.6638 56.884 34.867 57.3228L35.0457 57.7084C35.5464 58.7894 34.5913 59.9669 33.3437 59.8062Z" fill="white"/>
<path d="M37.418 76.325V89C37.418 90.6542 35.9795 92 34.2113 92H5.99165C4.22343 92 2.78487 90.6542 2.78487 89V76.325C2.78487 75.9937 3.07204 75.725 3.42623 75.725C3.78042 75.725 4.06758 75.9937 4.06758 76.325V89C4.06758 89.9925 4.93069 90.8 5.99165 90.8H12.9664V80.675C12.9664 79.0208 14.4049 77.675 16.1732 77.675H24.0297C25.798 77.675 27.2365 79.0208 27.2365 80.675V88.4C27.2365 88.7313 26.9494 89 26.5952 89C26.241 89 25.9538 88.7313 25.9538 88.4V80.675C25.9538 79.6825 25.0906 78.875 24.0297 78.875H16.1732C15.1123 78.875 14.2491 79.6825 14.2491 80.675V90.8H19.4601V81.35C19.4601 81.0187 19.7473 80.75 20.1014 80.75C20.4556 80.75 20.7428 81.0187 20.7428 81.35V90.8H34.2113C35.2721 90.8 36.1353 89.9925 36.1353 89V76.325C36.1353 75.9937 36.4225 75.725 36.7767 75.725C37.1309 75.725 37.418 75.9936 37.418 76.325ZM5.02962 65.6C5.02962 65.9314 5.31678 66.2 5.67097 66.2C40.5661 66.2 38.836 66.2584 39.0909 66.0754C39.2242 65.9795 39.3113 65.8411 39.3352 65.683C39.3709 65.4419 39.6011 66.0349 35.1204 56.3614C35.0186 56.142 34.7875 56 34.5318 56H5.67089C5.41531 56 5.18402 56.142 5.08245 56.3614L0.913642 65.3614C0.839966 65.5206 0.86073 65.268 0.86073 69.3224C0.86538 72.0513 3.23895 74.2714 6.15191 74.2714C8.15446 74.2714 9.90207 73.2222 10.8004 71.6797C12.8067 75.129 18.0914 75.1328 20.1014 71.682C22.1098 75.13 27.3921 75.1308 29.401 71.682C30.2987 73.2232 32.0464 74.2714 34.0508 74.2714C36.9684 74.2714 39.342 72.0509 39.342 69.3214C39.342 68.9901 39.0548 68.7214 38.7006 68.7214C38.3465 68.7214 38.0593 68.9901 38.0593 69.3214C38.0593 71.3892 36.2611 73.0714 34.0508 73.0714C31.8406 73.0714 30.0424 71.3892 30.0424 69.3214C30.0424 68.9901 29.7552 68.7214 29.401 68.7214C29.0468 68.7214 28.7597 68.9901 28.7597 69.3214C28.7597 71.3892 26.9615 73.0714 24.7512 73.0714C22.5409 73.0714 20.7427 71.3892 20.7427 69.3214C20.7427 68.9901 20.4556 68.7214 20.1014 68.7214C19.7472 68.7214 19.46 68.9901 19.46 69.3214C19.46 71.3892 17.6618 73.0714 15.4515 73.0714C13.2904 73.0714 11.4431 71.4466 11.4431 69.2914C11.4431 68.9601 11.1559 68.6914 10.8017 68.6914C10.4475 68.6914 10.1604 68.9601 10.1604 69.2914C10.1604 71.4284 8.32457 73.0714 6.15191 73.0714C3.94516 73.0714 2.14689 71.3887 2.14344 69.3214V65.7244L6.09202 57.2H34.1109L37.7238 65H5.67097C5.3167 65 5.02962 65.2686 5.02962 65.6Z" fill="#52C29D"/>
</svg>

<svg xmlns="http://www.w3.org/2000/svg" width="40" height="92" fill="none"><path fill="#D1E7FF" d="M36.777 13.322V33c0 1.325-1.15 2.4-2.566 2.4H5.991c-1.416 0-2.565-1.075-2.565-2.4 0-18.604-.001-15.119.006-19.678h33.345Z"/><path fill="#B9DCFF" d="M36.777 13.322v4.544c0 .984-.843 1.799-1.894 1.803H5.319c-1.05-.005-1.893-.82-1.893-1.803 0-1.311 0-.406.006-4.544h33.345Z"/><path fill="#E8F3FF" d="M26.595 24.675V35.4H13.608V24.675c0-1.325 1.149-2.4 2.565-2.4h7.857c1.416 0 2.565 1.075 2.565 2.4Z"/><path fill="#B9DCFF" d="M38.7 13.322c0 2.4-2.08 4.35-4.65 4.35-2.567 0-4.649-1.948-4.649-4.35 0 2.402-2.082 4.35-4.65 4.35-2.568 0-4.65-1.948-4.65-4.35 0 2.402-2.081 4.35-4.65 4.35-2.567 0-4.65-1.948-4.65-4.35-.003 2.386-2.103 4.35-4.649 4.35-2.543 0-4.646-1.962-4.65-4.35 0-3.781-.01-3.548.028-3.722.039-.17-.228.433 3.806-8.277C5.54.884 6.002.6 6.513.6H33.69c.51 0 .973.284 1.177.723 4.037 8.716 3.767 8.107 3.806 8.277.039.173.028-.063.028 3.722Z"/><path fill="#B9DCFF" d="M38.7 13.322c0 2.4-2.08 4.35-4.65 4.35-2.567 0-4.649-1.948-4.649-4.35 0 2.402-2.082 4.35-4.65 4.35-2.568 0-4.65-1.948-4.65-4.35 0 2.402-2.082 4.35-4.65 4.35-2.567 0-4.65-1.948-4.65-4.35-.003 2.386-2.103 4.35-4.649 4.35-2.543 0-4.646-1.962-4.65-4.35-.006-3.802-.005-3.574.028-3.722h37.143c.039.173.028-.063.028 3.722Z"/><path fill="#fff" d="M33.344 3.806c-8.144-1.048-16.362.297-23.01 4.982a4.514 4.514 0 0 1-2.597.812H1.53c.039-.17-.228.433 3.806-8.277C5.54.884 6.002.6 6.513.6H33.69c.511 0 .974.284 1.177.723l.179.385c.5 1.081-.455 2.259-1.702 2.098Z"/><path fill="#007FFC" d="M37.418 20.325V33c0 1.654-1.438 3-3.207 3H5.991c-1.768 0-3.206-1.346-3.206-3V20.325c0-.331.287-.6.641-.6.354 0 .642.269.642.6V33c0 .992.863 1.8 1.924 1.8h6.974V24.675c0-1.654 1.439-3 3.207-3h7.857c1.768 0 3.206 1.346 3.206 3V32.4c0 .331-.287.6-.64.6-.355 0-.642-.269-.642-.6v-7.725c0-.992-.863-1.8-1.924-1.8h-7.857c-1.06 0-1.924.808-1.924 1.8V34.8h5.211v-9.45c0-.331.287-.6.641-.6.355 0 .642.269.642.6v9.45H34.21c1.061 0 1.924-.807 1.924-1.8V20.325c0-.331.288-.6.642-.6.354 0 .641.269.641.6ZM5.03 9.6c0 .331.287.6.641.6 34.895 0 33.165.058 33.42-.125a.59.59 0 0 0 .244-.392c.036-.241.266.352-4.215-9.322A.644.644 0 0 0 34.532 0H5.67a.644.644 0 0 0-.589.361l-4.168 9C.84 9.521.86 9.268.86 13.322c.004 2.73 2.378 4.95 5.29 4.95 2.003 0 3.751-1.05 4.65-2.592 2.006 3.449 7.29 3.453 9.3.002 2.009 3.448 7.291 3.449 9.3 0 .898 1.541 2.645 2.59 4.65 2.59 2.917 0 5.291-2.221 5.291-4.95 0-.332-.287-.6-.641-.6-.355 0-.642.268-.642.6 0 2.067-1.798 3.75-4.008 3.75s-4.009-1.683-4.009-3.75c0-.332-.287-.6-.641-.6-.354 0-.641.268-.641.6 0 2.067-1.799 3.75-4.009 3.75-2.21 0-4.008-1.683-4.008-3.75 0-.332-.287-.6-.642-.6-.354 0-.641.268-.641.6 0 2.067-1.798 3.75-4.009 3.75-2.16 0-4.008-1.625-4.008-3.78 0-.332-.287-.6-.641-.6-.354 0-.642.268-.642.6 0 2.136-1.835 3.78-4.008 3.78-2.207 0-4.005-1.683-4.009-3.75V9.723L6.092 1.2h28.019L37.724 9H5.67c-.354 0-.641.269-.641.6Z"/><path fill="#E1F4F5" d="M36.777 69.322V89c0 1.325-1.15 2.4-2.566 2.4H5.991c-1.416 0-2.565-1.075-2.565-2.4 0-18.603-.001-15.119.006-19.678h33.345Z"/><path fill="#CAEFF2" d="M36.777 69.322v4.544c0 .984-.843 1.799-1.894 1.803H5.319c-1.05-.005-1.893-.82-1.893-1.803 0-1.311 0-.406.006-4.544h33.345Z"/><path fill="#F4FEFF" d="M26.595 80.675V91.4H13.608V80.675c0-1.325 1.149-2.4 2.565-2.4h7.857c1.416 0 2.565 1.075 2.565 2.4Z"/><path fill="#CAEFF2" d="M38.7 69.322c0 2.4-2.08 4.35-4.65 4.35-2.567 0-4.649-1.948-4.649-4.35 0 2.402-2.082 4.35-4.65 4.35-2.568 0-4.65-1.948-4.65-4.35 0 2.402-2.081 4.35-4.65 4.35-2.567 0-4.65-1.948-4.65-4.35-.003 2.386-2.103 4.35-4.649 4.35-2.543 0-4.646-1.962-4.65-4.35 0-3.781-.01-3.548.028-3.722.039-.17-.228.433 3.806-8.277.204-.439.666-.723 1.177-.723H33.69c.51 0 .973.284 1.177.723 4.037 8.716 3.767 8.107 3.806 8.277.039.173.028-.063.028 3.722Z"/><path fill="#CAEFF2" d="M38.7 69.322c0 2.4-2.08 4.35-4.65 4.35-2.567 0-4.649-1.948-4.649-4.35 0 2.402-2.082 4.35-4.65 4.35-2.568 0-4.65-1.948-4.65-4.35 0 2.402-2.082 4.35-4.65 4.35-2.567 0-4.65-1.948-4.65-4.35-.003 2.386-2.103 4.35-4.649 4.35-2.543 0-4.646-1.962-4.65-4.35-.006-3.802-.005-3.574.028-3.722h37.143c.039.173.028-.063.028 3.722Z"/><path fill="#fff" d="M33.344 59.806c-8.144-1.048-16.362.297-23.01 4.982a4.514 4.514 0 0 1-2.597.812H1.53c.039-.17-.228.433 3.806-8.277.204-.439.666-.723 1.177-.723H33.69c.511 0 .974.284 1.177.723l.179.385c.5 1.081-.455 2.259-1.702 2.098Z"/><path fill="#52C29D" d="M37.418 76.325V89c0 1.654-1.438 3-3.207 3H5.991c-1.768 0-3.206-1.346-3.206-3V76.325c0-.331.287-.6.641-.6.354 0 .642.269.642.6V89c0 .993.863 1.8 1.924 1.8h6.974V80.675c0-1.654 1.439-3 3.207-3h7.857c1.768 0 3.206 1.346 3.206 3V88.4c0 .331-.287.6-.64.6-.355 0-.642-.269-.642-.6v-7.725c0-.992-.863-1.8-1.924-1.8h-7.857c-1.06 0-1.924.808-1.924 1.8V90.8h5.211v-9.45c0-.331.287-.6.641-.6.355 0 .642.269.642.6v9.45H34.21c1.061 0 1.924-.807 1.924-1.8V76.325c0-.331.288-.6.642-.6.354 0 .641.269.641.6ZM5.03 65.6c0 .331.287.6.641.6 34.895 0 33.165.058 33.42-.125a.59.59 0 0 0 .244-.392c.036-.241.266.352-4.215-9.322a.644.644 0 0 0-.588-.361H5.67a.644.644 0 0 0-.589.361l-4.168 9c-.074.16-.053-.093-.053 3.961.004 2.73 2.378 4.95 5.29 4.95 2.003 0 3.751-1.05 4.65-2.592 2.006 3.449 7.29 3.453 9.3.002 2.009 3.448 7.291 3.449 9.3 0 .898 1.541 2.645 2.59 4.65 2.59 2.917 0 5.291-2.221 5.291-4.95 0-.332-.287-.6-.641-.6-.355 0-.642.268-.642.6 0 2.067-1.798 3.75-4.008 3.75s-4.009-1.683-4.009-3.75c0-.332-.287-.6-.641-.6-.354 0-.641.268-.641.6 0 2.067-1.799 3.75-4.009 3.75-2.21 0-4.008-1.683-4.008-3.75 0-.332-.287-.6-.642-.6-.354 0-.641.268-.641.6 0 2.067-1.798 3.75-4.009 3.75-2.16 0-4.008-1.625-4.008-3.78 0-.332-.287-.6-.641-.6-.354 0-.642.268-.642.6 0 2.136-1.835 3.78-4.008 3.78-2.207 0-4.005-1.683-4.009-3.75v-3.598L6.092 57.2h28.019l3.613 7.8H5.67c-.354 0-.641.269-.641.6Z"/></svg>
